www/assets/icons/format_underlined.svg

<svg xmlns="http://www.w3.org/2000/svg" width="24" height="24" viewBox="0 0 24 24" fill='currentColor'><path d="M12 17c3.31 0 6-2.69 6-6V3h-2.5v8c0 1.93-1.57 3.5-3.5 3.5S8.5 12.93 8.5 11V3H6v8c0 3.31 2.69 6 6 6m-7 2v2h14v-2z"/></svg>

<svg width="24" height="24" viewBox="0 0 24 24" xmlns="http://www.w3.org/2000/svg" fill='currentColor'><path d="M12 17C15.31 17 18 14.31 18 11V3H15.5V11C15.5 12.93 13.93 14.5 12 14.5C10.07 14.5 8.5 12.93 8.5 11V3H6V11C6 14.31 8.69 17 12 17ZM5 19V21H19V19H5Z"/></svg>
